public/logo.svg

<svg width="128" height="64" viewBox="0 0 128 64" fill="none" xmlns="http://www.w3.org/2000/svg">
<path fill-rule="evenodd" clip-rule="evenodd" d="M35.8689 26.0398L90.3185 20.7935L93 48.6238L57.3178 52.0619C59.0075 51.002 60.0007 49.3887 60.0007 47.5341C60.0007 44.7571 57.9622 42.7482 54.2103 42.7482H50.4584C49.7789 42.7482 49.4539 42.4528 49.4539 41.8619C49.4539 41.5369 49.6312 41.212 49.9561 40.9165C50.3993 41.0052 50.872 41.0347 51.3742 41.0347C55.2147 41.0347 57.4009 38.6713 57.4009 35.7466C57.4009 35.2443 57.3418 34.7717 57.1941 34.299H59.8234V31.1084H54.3876C53.5308 30.7243 52.5264 30.5175 51.3742 30.5175C47.6518 30.5175 45.4066 32.8514 45.4066 35.7466C45.4066 37.401 46.1156 38.8781 47.4155 39.853C46.2929 40.6802 45.7906 41.6256 45.7906 42.8073C45.7906 43.5754 46.1156 44.373 46.7064 44.9639C45.377 45.9388 44.6385 47.1205 44.6385 48.5976C44.6385 50.7682 45.9868 52.2291 48.3982 52.9213L9.68149 56.6517L7 28.8213L29.5987 26.6439L22.2719 45.9979H26.7328L28.7122 40.6211H36.9841L38.9635 45.9979H43.4244L35.8689 26.0398ZM70.7826 45.9979V31.1084H74.5345V32.5855C75.5094 31.581 76.7798 30.8129 78.4637 30.8129C78.9659 30.8129 79.4091 30.9016 79.7636 31.0197V34.7126C79.2909 34.5944 78.7887 34.5058 78.1092 34.5058C76.2775 34.5058 75.0958 35.5102 74.5345 36.4556V45.9979H70.7826ZM61.9701 26.0566C61.9701 27.386 63.0927 28.5086 64.4221 28.5086C65.7516 28.5086 66.8447 27.386 66.8447 26.0566C66.8447 24.7271 65.7516 23.6045 64.4221 23.6045C63.0927 23.6045 61.9701 24.7271 61.9701 26.0566ZM62.5314 31.1084V45.9979H66.2833V31.1084H62.5314ZM51.4333 38.1986C52.999 38.1986 54.0035 37.2237 54.0035 35.7466C54.0035 34.2694 52.999 33.3241 51.4333 33.3241C49.8084 33.3241 48.8335 34.299 48.8335 35.7466C48.8335 37.2237 49.8084 38.1986 51.4333 38.1986ZM48.1836 48.0659C48.1836 49.4839 49.5425 50.3702 52.1719 50.3702C54.8898 50.3702 56.2783 49.3658 56.2783 47.8886C56.2783 46.766 55.5988 45.9683 53.7967 45.9683H49.188C48.6267 46.5001 48.1836 47.1501 48.1836 48.0659ZM32.8481 29.2767L35.6842 37.0464H30.012L32.8481 29.2767Z" fill="black"/>
<rect x="78" y="7" width="41" height="24" rx="12" fill="#E3E3FD"/>
<path d="M107.138 23.5598C105.926 23.5598 105.098 22.8638 105.098 21.7478C105.098 20.8358 105.806 20.1518 107.102 19.9358L108.95 19.6238V19.4678C108.95 18.8318 108.47 18.4238 107.774 18.4238C107.186 18.4238 106.73 18.6998 106.406 19.1438L105.29 18.2918C105.83 17.5478 106.718 17.0918 107.822 17.0918C109.574 17.0918 110.474 18.1358 110.474 19.4678V23.3798H108.95V22.7918C108.566 23.2598 107.846 23.5598 107.138 23.5598ZM106.61 21.6758C106.61 22.0838 106.934 22.3478 107.45 22.3478C108.146 22.3478 108.65 22.0238 108.95 21.5438V20.6918L107.51 20.9318C106.874 21.0398 106.61 21.3038 106.61 21.6758Z" fill="#000091"/>
<path d="M100.685 21.1718V18.6998H99.557V17.3318H100.685V15.8198H102.221V17.3318H104.069V18.6998H102.221V21.1718C102.221 21.8438 102.581 22.1078 103.181 22.1078C103.601 22.1078 103.877 22.0598 104.081 21.9758V23.3078C103.781 23.4398 103.421 23.4998 102.917 23.4998C101.405 23.4998 100.685 22.6478 100.685 21.1718Z" fill="#000091"/>
<path d="M95.2115 16.3719H93.8795L95.1155 14.3799H97.0595L98.2955 16.3719H96.9635L96.0875 15.0639L95.2115 16.3719ZM98.9315 22.3959C98.3675 23.1519 97.4315 23.6199 96.2915 23.6199C94.1435 23.6199 92.9315 22.1199 92.9315 20.3559C92.9315 18.5679 94.0595 17.0919 96.0395 17.0919C97.7195 17.0919 98.8235 18.2319 98.8235 19.8159C98.8235 20.1519 98.7755 20.4639 98.7275 20.6679H94.4915C94.6355 21.7959 95.3315 22.2519 96.2795 22.2519C96.9395 22.2519 97.5155 21.9639 97.8395 21.5319L98.9315 22.3959ZM96.0035 18.3399C95.2235 18.3399 94.7075 18.7719 94.5395 19.5639H97.3235C97.2995 18.9519 96.8555 18.3399 96.0035 18.3399Z" fill="#000091"/>
<path d="M86 23.38V14.98H88.472C90.224 14.98 91.292 15.844 91.292 17.26C91.292 17.944 90.98 18.532 90.392 18.916C91.28 19.312 91.772 20.032 91.772 20.908C91.772 22.444 90.584 23.38 88.652 23.38H86ZM88.508 16.396H87.704V18.292H88.508C89.156 18.292 89.54 17.944 89.54 17.332C89.54 16.744 89.156 16.396 88.508 16.396ZM88.748 19.708H87.704V21.964H88.748C89.54 21.964 90.02 21.544 90.02 20.836C90.02 20.116 89.54 19.708 88.748 19.708Z" fill="#000091"/>
</svg>

<svg xmlns="http://www.w3.org/2000/svg" width="128" height="64" fill="none"><path fill="#000" fill-rule="evenodd" d="m35.869 26.04 54.45-5.246L93 48.624l-35.682 3.438c1.69-1.06 2.683-2.673 2.683-4.528 0-2.777-2.039-4.786-5.79-4.786h-3.753c-.68 0-1.004-.295-1.004-.886 0-.325.177-.65.502-.946.443.09.916.119 1.418.119 3.84 0 6.027-2.364 6.027-5.288 0-.503-.06-.975-.207-1.448h2.63v-3.19h-5.436c-.857-.385-1.862-.592-3.014-.592-3.722 0-5.967 2.334-5.967 5.23 0 1.654.709 3.131 2.009 4.106-1.123.827-1.625 1.773-1.625 2.954 0 .768.325 1.566.915 2.157-1.329.975-2.068 2.157-2.068 3.634 0 2.17 1.349 3.631 3.76 4.323l-38.717 3.73L7 28.822l22.599-2.177-7.327 19.354h4.46l1.98-5.377h8.272l1.98 5.377h4.46zm34.914 19.958v-14.89h3.751v1.478c.975-1.005 2.246-1.773 3.93-1.773.502 0 .945.089 1.3.207v3.693a6.5 6.5 0 0 0-1.655-.207c-1.831 0-3.013 1.004-3.575 1.95v9.542zM61.97 26.057c0 1.329 1.123 2.452 2.452 2.452 1.33 0 2.423-1.123 2.423-2.452 0-1.33-1.093-2.452-2.423-2.452s-2.452 1.122-2.452 2.452m.561 5.051v14.89h3.752v-14.89zm-11.098 7.09c1.566 0 2.57-.974 2.57-2.451s-1.004-2.423-2.57-2.423c-1.625 0-2.6.975-2.6 2.423 0 1.477.975 2.452 2.6 2.452m-3.25 9.868c0 1.418 1.36 2.304 3.989 2.304 2.718 0 4.106-1.004 4.106-2.481 0-1.123-.68-1.92-2.481-1.92h-4.609c-.561.531-1.004 1.181-1.004 2.097m-15.335-18.79 2.836 7.77h-5.672z" clip-rule="evenodd"/><rect width="41" height="24" x="78" y="7" fill="#E3E3FD" rx="12"/><path fill="#000091" d="M107.138 23.56c-1.212 0-2.04-.696-2.04-1.812 0-.912.708-1.596 2.004-1.812l1.848-.312v-.156c0-.636-.48-1.044-1.176-1.044-.588 0-1.044.276-1.368.72l-1.116-.852c.54-.744 1.428-1.2 2.532-1.2 1.752 0 2.652 1.044 2.652 2.376v3.912h-1.524v-.588c-.384.468-1.104.768-1.812.768m-.528-1.884c0 .408.324.672.84.672.696 0 1.2-.324 1.5-.804v-.852l-1.44.24c-.636.108-.9.372-.9.744m-5.925-.504V18.7h-1.128v-1.368h1.128V15.82h1.536v1.512h1.848V18.7h-1.848v2.472c0 .672.36.936.96.936.42 0 .696-.048.9-.132v1.332c-.3.132-.66.192-1.164.192-1.512 0-2.232-.852-2.232-2.328m-5.473-4.8h-1.333l1.236-1.992h1.945l1.236 1.992h-1.333l-.875-1.308zm3.72 6.024c-.564.756-1.5 1.224-2.64 1.224-2.148 0-3.36-1.5-3.36-3.264 0-1.788 1.127-3.264 3.108-3.264 1.68 0 2.783 1.14 2.783 2.724 0 .336-.047.648-.095.852h-4.236c.143 1.128.84 1.584 1.787 1.584.66 0 1.237-.288 1.56-.72zm-2.928-4.056c-.78 0-1.297.432-1.465 1.224h2.784c-.023-.612-.467-1.224-1.32-1.224M86 23.38v-8.4h2.472c1.752 0 2.82.864 2.82 2.28 0 .684-.312 1.272-.9 1.656.888.396 1.38 1.116 1.38 1.992 0 1.536-1.188 2.472-3.12 2.472zm2.508-6.984h-.804v1.896h.804c.648 0 1.032-.348 1.032-.96 0-.588-.384-.936-1.032-.936m.24 3.312h-1.044v2.256h1.044c.792 0 1.272-.42 1.272-1.128 0-.72-.48-1.128-1.272-1.128"/></svg>
